src/public/img/history/numbers.svg

<svg width="80" height="80" viewBox="0 0 80 80" fill="none" xmlns="http://www.w3.org/2000/svg">
<rect x="1" y="1" width="78" height="78" rx="39" fill="white"/>
<path fill-rule="evenodd" clip-rule="evenodd" d="M32.6994 39.8204C32.1357 40.4275 31.1866 40.4626 30.5795 39.8989L22.1795 32.0989C21.8739 31.8151 21.7002 31.4168 21.7002 30.9997C21.7002 30.5826 21.8739 30.1843 22.1795 29.9005L30.5795 22.1005C31.1866 21.5368 32.1357 21.572 32.6994 22.179C33.2631 22.7861 33.2279 23.7352 32.6209 24.2989L27.0198 29.4999L48.4 29.4999C49.2284 29.4999 49.9 30.1715 49.9 30.9999C49.9 31.8283 49.2284 32.4999 48.4 32.4999L27.0202 32.4999L32.6209 37.7005C33.2279 38.2642 33.2631 39.2133 32.6994 39.8204ZM50.6209 41.3011C50.0138 40.7374 49.0647 40.7726 48.501 41.3796C47.9373 41.9867 47.9725 42.9358 48.5795 43.4995L54.1802 48.7001H32.7999C31.9715 48.7001 31.2999 49.3717 31.2999 50.2001C31.2999 51.0285 31.9715 51.7001 32.7999 51.7001H54.1806L48.5795 56.9011C47.9725 57.4648 47.9373 58.4139 48.501 59.021C49.0647 59.628 50.0138 59.6632 50.6209 59.0995L59.0209 51.2995C59.3265 51.0157 59.5002 50.6174 59.5002 50.2003C59.5002 49.7832 59.3265 49.3849 59.0209 49.1011L50.6209 41.3011Z" fill="#F65128"/>
<rect x="1" y="1" width="78" height="78" rx="39" stroke="#F65128" stroke-width="2"/>
</svg>

<svg xmlns="http://www.w3.org/2000/svg" width="80" height="80" fill="none">
  <rect width="78" height="78" x="1" y="1" fill="#fff" rx="39"/>
  <path fill="#F65128" fill-rule="evenodd" d="M32.7 39.82a1.5 1.5 0 0 1-2.12.079l-8.4-7.8a1.5 1.5 0 0 1 0-2.198l8.4-7.8a1.5 1.5 0 0 1 2.04 2.198l-5.6 5.2H48.4a1.5 1.5 0 0 1 0 3H27.02l5.6 5.201a1.5 1.5 0 0 1 .08 2.12Zm17.92 1.481a1.5 1.5 0 0 0-2.04 2.198l5.6 5.201H32.8a1.5 1.5 0 0 0 0 3h21.38l-5.6 5.201a1.5 1.5 0 0 0 2.04 2.198l8.4-7.8a1.5 1.5 0 0 0 0-2.198l-8.4-7.8Z" clip-rule="evenodd"/>
  <rect width="78" height="78" x="1" y="1" stroke="#F65128" stroke-width="2" rx="39"/>
</svg>
